_includes/icons/color-grid-view.svg

<svg fill="#666" height="50" viewBox="0 0 48 48" width="50" xmlns="http://www.w3.org/2000/svg"><g fill="#64b5f6"><path d="m16 14c0 1.105469-.894531 2-2 2h-6c-1.105469 0-2-.894531-2-2v-6c0-1.105469.894531-2 2-2h6c1.105469 0 2 .894531 2 2z"/><path d="m29 14c0 1.105469-.894531 2-2 2h-6c-1.105469 0-2-.894531-2-2v-6c0-1.105469.894531-2 2-2h6c1.105469 0 2 .894531 2 2z"/><path d="m42 14c0 1.105469-.894531 2-2 2h-6c-1.105469 0-2-.894531-2-2v-6c0-1.105469.894531-2 2-2h6c1.105469 0 2 .894531 2 2z"/><path d="m16 27c0 1.105469-.894531 2-2 2h-6c-1.105469 0-2-.894531-2-2v-6c0-1.105469.894531-2 2-2h6c1.105469 0 2 .894531 2 2z"/><path d="m29 27c0 1.105469-.894531 2-2 2h-6c-1.105469 0-2-.894531-2-2v-6c0-1.105469.894531-2 2-2h6c1.105469 0 2 .894531 2 2z"/><path d="m42 27c0 1.105469-.894531 2-2 2h-6c-1.105469 0-2-.894531-2-2v-6c0-1.105469.894531-2 2-2h6c1.105469 0 2 .894531 2 2z"/><path d="m16 40c0 1.105469-.894531 2-2 2h-6c-1.105469 0-2-.894531-2-2v-6c0-1.105469.894531-2 2-2h6c1.105469 0 2 .894531 2 2z"/><path d="m29 40c0 1.105469-.894531 2-2 2h-6c-1.105469 0-2-.894531-2-2v-6c0-1.105469.894531-2 2-2h6c1.105469 0 2 .894531 2 2z"/><path d="m42 40c0 1.105469-.894531 2-2 2h-6c-1.105469 0-2-.894531-2-2v-6c0-1.105469.894531-2 2-2h6c1.105469 0 2 .894531 2 2z"/></g></svg>

<svg xmlns="http://www.w3.org/2000/svg" viewBox="0 0 48 48" width="50" height="50" fill="#666"><g fill="#64b5f6"><path d="M 16 14 C 16 15.105469 15.105469 16 14 16 L 8 16 C 6.894531 16 6 15.105469 6 14 L 6 8 C 6 6.894531 6.894531 6 8 6 L 14 6 C 15.105469 6 16 6.894531 16 8 Z"/><path d="M 29 14 C 29 15.105469 28.105469 16 27 16 L 21 16 C 19.894531 16 19 15.105469 19 14 L 19 8 C 19 6.894531 19.894531 6 21 6 L 27 6 C 28.105469 6 29 6.894531 29 8 Z"/><path d="M 42 14 C 42 15.105469 41.105469 16 40 16 L 34 16 C 32.894531 16 32 15.105469 32 14 L 32 8 C 32 6.894531 32.894531 6 34 6 L 40 6 C 41.105469 6 42 6.894531 42 8 Z"/><path d="M 16 27 C 16 28.105469 15.105469 29 14 29 L 8 29 C 6.894531 29 6 28.105469 6 27 L 6 21 C 6 19.894531 6.894531 19 8 19 L 14 19 C 15.105469 19 16 19.894531 16 21 Z"/><path d="M 29 27 C 29 28.105469 28.105469 29 27 29 L 21 29 C 19.894531 29 19 28.105469 19 27 L 19 21 C 19 19.894531 19.894531 19 21 19 L 27 19 C 28.105469 19 29 19.894531 29 21 Z"/><path d="M 42 27 C 42 28.105469 41.105469 29 40 29 L 34 29 C 32.894531 29 32 28.105469 32 27 L 32 21 C 32 19.894531 32.894531 19 34 19 L 40 19 C 41.105469 19 42 19.894531 42 21 Z"/><path d="M 16 40 C 16 41.105469 15.105469 42 14 42 L 8 42 C 6.894531 42 6 41.105469 6 40 L 6 34 C 6 32.894531 6.894531 32 8 32 L 14 32 C 15.105469 32 16 32.894531 16 34 Z"/><path d="M 29 40 C 29 41.105469 28.105469 42 27 42 L 21 42 C 19.894531 42 19 41.105469 19 40 L 19 34 C 19 32.894531 19.894531 32 21 32 L 27 32 C 28.105469 32 29 32.894531 29 34 Z"/><path d="M 42 40 C 42 41.105469 41.105469 42 40 42 L 34 42 C 32.894531 42 32 41.105469 32 40 L 32 34 C 32 32.894531 32.894531 32 34 32 L 40 32 C 41.105469 32 42 32.894531 42 34 Z"/></g></svg>
